X:378
T:Irish Air. RH.378
R:jig
S:Rev.R.Harrison’s MS,c1815,Cumbria
O:England
A:Temple Sowerby,Cumbria
Z:vmp.Simon Wilson. Review PJH, 2008.
M:6/8
L:1/8
Q:3/8=120
K:G
“Vivace”B3 AGA|G>AG GBd|e>fg dcB|cAA AGA|!
B3 AGA|G>AG GBd|e>fg dgB|A3 ” Fin”G3||!
b3 aga|g>ag gbd’|e’>f’g’ d’c’b|”Vivace”c’aa aga|!
b3 aga|g>ag gbd’|e’>f’g’ d’g’b|a3 g3||!
B>cd ddd|d>e=f e=fg|d>cB B>AG|F>GA ABc|!
B>cd ddd|d>e=f e>^fg|d>cB B>AG|AFAc3|]

